X: 1073
T: Miss Stewart of Grandtully's Strathspey
%R: strathspey
B: Niel Gow & Sons "A Collection of Strathspey Reels, etc." v.1 p.7 #3
Z: 2022 John Chambers <jc:trillian.mit.edu>
M: C
L: 1/8
K: Amix
% = = = = = = = = = =
V: 1 staves=2
e |\
A<Ac>A c/d/e {d}Tc2 | B<GB>=c d/c/B/A/ G>B |\
A<Ac>A c/d/e Tc2 | A<ae<f c>AA :| ^g |\
a>ea>e a/^g/f/e/ a>e | =g>dg>d BGG>^g |
a>ea>e a/^g/f/e/ a>e | f>eae c>AA>^g ||\
a>ea>e a/^g/f/e/ a>e | =g>dg>d B>GG<B |\
A<Ac>A c/d/e Tc2 | a<ae<f c>AA |]
% = = = = = = = = = =
% Voice 2 preserves the staff layout in the book.
V: 2 clef=bass middle=d
z | a2a2 a2a2 | g2g2 g2g2 | a2a2 a2a2 | e2e2 a2a :| z | a2a2 a2a2 | g2g2 g2g2 |
a2a2 a2a2 | e2e2 a2A2 || a2a2 a2a2 | g2g2 g2g2 | a2a2 a2a2 | e2e2 a2A |]


